X: 2
T: Reel des Esquimaux
C:
M: C|
L: 1/8
R: reel
K: G
(3DEF|"G"G3G GEDC |B,G,"D"A,C "G"B,G,G,2|"G"B,DGB "G#dim"cBAG |"Am7"FGAB "D"A2 (3DEF|
"G"GFGA GEDC |B,G,"D"A,C "G"B,G,G,2|"G"B,DGB "Am7"cBAG |"D"FDEF "G"G2:|
|:Bc|"G"d3e dcBd|"C"g2ga "Am"gedc| "G"BGBd "G#dim"cBAG|"Am7"FGAB "D"A2Bc|
"G"d3e dcBd|"C"gfga "Am7"gedc| "G"BGBd "Am7"cBAG|"D"FDEF "G"G2:|


#include "RightHeader.h"
% %footer 04/02/18 For use only by Roaring Jelly members
% %text Set 134 NEFFA 2018 continued
% %scale .9
$SmallLMargin
$SmallRMargin
% %vskip 5cm
